flaticon/essential/diamond.svg

<svg xmlns="http://www.w3.org/2000/svg" width="32" height="32" viewBox="0 0 24 24">
    <path d="M 23.996094 8.066406 C 23.996094 8.050781 24 8.035156 24 8.019531 C 24 8 24 7.980469 24 7.960938 C 23.996094 7.945312 23.996094 7.925781 23.992188 7.910156 C 23.984375 7.890625 23.980469 7.875 23.972656 7.855469 C 23.96875 7.84375 23.96875 7.835938 23.964844 7.828125 C 23.960938 7.820312 23.957031 7.8125 23.953125 7.808594 C 23.949219 7.800781 23.945312 7.792969 23.941406 7.785156 L 19.941406 1.386719 C 19.921875 1.355469 19.902344 1.328125 19.878906 1.304688 C 19.875 1.304688 19.875 1.304688 19.875 1.304688 C 19.839844 1.273438 19.800781 1.25 19.757812 1.230469 C 19.75 1.230469 19.746094 1.222656 19.742188 1.222656 C 19.738281 1.21875 19.734375 1.222656 19.726562 1.21875 C 19.6875 1.207031 19.644531 1.195312 19.601562 1.195312 L 4.398438 1.195312 C 4.355469 1.195312 4.316406 1.207031 4.273438 1.21875 C 4.269531 1.21875 4.265625 1.21875 4.261719 1.222656 C 4.257812 1.222656 4.253906 1.226562 4.246094 1.230469 C 4.207031 1.246094 4.167969 1.269531 4.132812 1.300781 C 4.128906 1.300781 4.128906 1.304688 4.125 1.304688 C 4.101562 1.328125 4.078125 1.355469 4.058594 1.382812 L 0.0585938 7.785156 C 0.0546875 7.792969 0.0546875 7.800781 0.0507812 7.808594 C 0.046875 7.8125 0.0390625 7.820312 0.0390625 7.824219 C 0.0351562 7.835938 0.03125 7.84375 0.0273438 7.855469 C 0.0195312 7.871094 0.015625 7.890625 0.0117188 7.910156 C 0.0078125 7.925781 0.00390625 7.945312 0.00390625 7.960938 C 0 7.980469 0 8 0 8.019531 C 0 8.035156 0.00390625 8.050781 0.00390625 8.066406 C 0.0078125 8.085938 0.015625 8.105469 0.0195312 8.125 C 0.0273438 8.140625 0.03125 8.15625 0.0390625 8.171875 C 0.0429688 8.175781 0.0429688 8.183594 0.046875 8.191406 C 0.0546875 8.203125 0.0625 8.214844 0.0703125 8.222656 C 0.0742188 8.230469 0.078125 8.242188 0.0859375 8.25 L 11.683594 22.648438 C 11.683594 22.648438 11.6875 22.648438 11.6875 22.648438 L 11.6875 22.652344 C 11.691406 22.65625 11.691406 22.65625 11.691406 22.65625 C 11.726562 22.695312 11.765625 22.726562 11.8125 22.75 C 11.824219 22.757812 11.835938 22.761719 11.847656 22.765625 C 11.894531 22.789062 11.945312 22.800781 12 22.800781 C 12.046875 22.800781 12.089844 22.792969 12.136719 22.777344 C 12.144531 22.773438 12.148438 22.769531 12.15625 22.765625 C 12.175781 22.757812 12.191406 22.746094 12.210938 22.734375 C 12.242188 22.714844 12.269531 22.695312 12.292969 22.667969 C 12.296875 22.660156 12.304688 22.660156 12.3125 22.652344 L 23.914062 8.25 C 23.921875 8.242188 23.925781 8.230469 23.929688 8.222656 C 23.9375 8.214844 23.945312 8.203125 23.953125 8.191406 C 23.957031 8.183594 23.957031 8.175781 23.960938 8.171875 C 23.96875 8.15625 23.976562 8.140625 23.980469 8.125 C 23.984375 8.105469 23.992188 8.085938 23.996094 8.066406 Z M 12.839844 1.996094 L 19.027344 1.996094 L 17.082031 7.21875 Z M 16.359375 7.597656 L 7.640625 7.597656 L 12 2.234375 Z M 6.890625 7.25 L 4.96875 1.996094 L 11.160156 1.996094 Z M 16.640625 8.398438 L 11.929688 21.042969 L 7.308594 8.398438 Z M 19.691406 2.5 L 22.878906 7.597656 L 17.792969 7.597656 Z M 4.304688 2.503906 L 6.164062 7.597656 L 1.121094 7.597656 Z M 6.457031 8.398438 L 10.792969 20.265625 L 1.234375 8.398438 Z M 12.960938 20.574219 L 17.496094 8.398438 L 22.765625 8.398438 Z M 12.960938 20.574219"/>
</svg>

<svg xmlns="http://www.w3.org/2000/svg" width="32" height="32" viewBox="0 0 24 24">
    <path d="M23.996 8.066c0-.015.004-.03.004-.046v-.06c-.004-.015-.004-.034-.008-.05l-.02-.055c-.003-.011-.003-.02-.007-.027a.085.085 0 0 0-.012-.02l-.012-.023-4-6.398a.453.453 0 0 0-.062-.082h-.004a.458.458 0 0 0-.117-.075c-.008 0-.012-.007-.016-.007-.004-.004-.008 0-.015-.004a.443.443 0 0 0-.125-.024H4.398c-.043 0-.082.012-.125.024-.003 0-.007 0-.011.004-.004 0-.008.004-.016.007a.389.389 0 0 0-.113.07c-.004 0-.004.005-.008.005a.637.637 0 0 0-.066.078l-4 6.402c-.004.008-.004.016-.008.024-.004.003-.012.011-.012.015l-.012.031c-.007.016-.011.036-.015.055a.229.229 0 0 0-.008.05C0 7.98 0 8 0 8.02c0 .015.004.03.004.046.004.02.012.04.016.059.007.016.011.031.02.047.003.004.003.012.007.02a.217.217 0 0 0 .023.03c.004.008.008.02.016.028l11.598 14.398h.004v.004l.003.004a.404.404 0 0 0 .157.11.336.336 0 0 0 .152.035.42.42 0 0 0 .137-.024l.02-.011c.019-.008.034-.02.054-.032a.34.34 0 0 0 .082-.066c.004-.008.012-.008.02-.016L23.913 8.25c.008-.008.012-.02.016-.027.008-.008.015-.02.023-.032.004-.007.004-.015.008-.02.008-.015.016-.03.02-.046.003-.02.011-.04.015-.059zM12.84 1.996h6.187L17.082 7.22zm3.52 5.602H7.64L12 2.234zM6.89 7.25L4.97 1.996h6.191zm9.75 1.148l-4.71 12.645L7.309 8.398zM19.692 2.5l3.188 5.098h-5.086zm-15.386.004l1.86 5.094H1.12zm2.152 5.894l4.336 11.868L1.234 8.398zm6.504 12.176l4.535-12.176h5.27zm0 0"/>
</svg>
